!!!OTL: HIER IN DES ABENDS TRAULICH ERNSTER STILLE
!!!ARE: Europa, Mitteleuropa, Deutschland
!!!SCT: F0496
!!!YEM: Copyright 1995, estate of Helmut Schaffrath.
**kern
*ICvox
*Ivox
*M4/4
*k[f#c#]
*D:
=1
{2d
4d
4d
=2
2e
2e}
=3
{4f#
4d
4d
4e
=4
2d
2c#}
=5
{2f#
4f#
4f#
=6
4f#
4e
2e}
=7
{4.d
8d
4e
4d
=8
2d
2c#}
=9
{2f#
4e
4d
=10
4g
4f#
2e}
=11
{4.f#
8f#
4e
4d
=12
4c#
4B
2A}
=13
{2f#
4d
4e
=14
2d
2c#
=15
1d}
==
!!!AGN: Studenten - Lied
!!!ONB: ESAC (Essen Associative Code) Database: FINK
!!!AMT: simple quadruple
!!!AIN: vox
!!!EED: Helmut Schaffrath
!!!EEV: 1.0
*-
